X: 334
T: Gege canjia balujiun
L: 1/8
M: 2/4
K: A
B2e e [I:setbarnb 1]| 
f e c B | 
B> c e A | 
B4 | 
B2e e | 
f e c B | 
B c e A | 
B4 | 
A2G F | 
E2E2 | 
e2f e | 
d cB2 | 
e> f e e | 
d c B3/ c/ | 
A> G F C | 
E4 |]

@@@ Tune index: 9208
